X:1
T:Title
%%score 1 2
L:1/8
Q:1/4=108
M:4/4
K:G
V:1 treble nm="Grand Piano, Soprano"
V:2 bass nm="Choir Pad, God Sendeth All, Steinhauer"
V:1
 [GB]4 [DA]2 [DG]2 | [FA]6 z2 | [FA]2 [FA][FA] [EG]2 [FA]2 | [GB]6 z2 | [DB]4 [CA]2 [B,G]2 | %5
w: By~Rosa~Steinhauer * *|||||
 [DF]2 [CE]2 D2 D2 | [CE]2 [CG]2 [CF]2 [CA]2 | [B,G]8 |] %8
w: |||
V:2
 [G,D]4 [G,C]2 [G,B,]2 | [D,D]6 z2 | [D,D]2 [D,D][D,D] [D,D]2 [D,D]2 | [G,D]6 z2 | %4
 G,4 [D,F,]2 [E,G,]2 | [C,G,]2 [C,G,]2 [B,,G,]2 [B,,G,]2 | [C,G,]2 [C,E,]2 D,2 D,2 | [G,,D,]8 |] %8

